build/assets/images/proyectos/logos/fichas/logo-oxford.svg

<svg width="180" height="52" viewBox="0 0 180 52" fill="none" xmlns="http://www.w3.org/2000/svg">
<g clip-path="url(#clip0)">
<path fill-rule="evenodd" clip-rule="evenodd" d="M173.373 51.0429C172.417 51.0429 171.016 50.5286 170.187 50.1429V46.5429H170.825C171.08 48.0857 171.653 50.1429 173.5 50.1429C174.521 50.1429 175.221 49.4362 175.221 48.4714C175.221 45.9648 170.187 46.5429 170.187 43.1352C170.187 41.0143 172.163 39.9209 174.011 39.9209C175.03 39.9209 175.858 40.2429 176.75 40.6923L176.559 43.6495H175.922C175.668 42.4286 175.285 40.8209 173.756 40.8209C172.928 40.8209 172.226 41.5286 172.226 42.3638C172.226 44.8714 177.324 44.3571 177.324 47.8286C177.324 50.0791 175.349 51.0429 173.373 51.0429ZM163.815 51.0429C162.924 51.0429 161.458 50.5286 160.63 50.1429V46.5429H161.268C161.522 48.0857 162.159 50.1429 164.007 50.1429C164.963 50.1429 165.664 49.4362 165.664 48.4714C165.664 45.9648 160.694 46.5429 160.694 43.1352C160.694 41.0143 162.67 39.9209 164.517 39.9209C165.472 39.9209 166.364 40.2429 167.193 40.6923L167.066 43.6495H166.428C166.11 42.4286 165.728 40.8209 164.198 40.8209C163.37 40.8209 162.732 41.5286 162.732 42.3638C162.732 44.8714 167.83 44.3571 167.83 47.8286C167.83 50.0791 165.791 51.0429 163.815 51.0429ZM161.268 2.37806C160.694 2.37806 159.993 2.44286 159.356 2.6352V22.5C159.356 25.9077 160.694 26.7429 164.071 26.7429C170.952 26.7429 174.648 21.5362 174.648 14.9791C174.648 6.87806 168.913 2.37909 161.268 2.37909V2.37806ZM157.827 49.5C157.763 49.9505 157.572 50.3352 157.444 50.7857H148.587V50.0791C150.308 49.8219 150.562 49.7571 150.626 47.9571C150.691 47.3143 150.691 46.6714 150.691 46.0923V44.6781C150.691 44.1 150.691 43.5219 150.626 42.9429C150.562 41.2714 150.244 41.0143 148.587 40.8857V40.1791H157.572L157.507 43.3286H156.807C156.744 42.7505 156.679 42.0429 156.234 41.6571C155.596 41.0781 153.876 41.0781 153.048 41.0781H152.793L152.729 44.6781C153.175 44.6781 154.959 44.7429 155.278 44.4857C155.469 44.3571 155.66 43.4571 155.724 43.2648H156.361V47.6352H155.66C155.532 46.3495 155.532 45.9648 154.195 45.9648H152.729V47.8286C152.793 49.3077 152.729 49.8857 154.449 49.8857C156.425 49.8857 157.253 48.3429 157.763 46.6714L158.4 46.8C158.209 47.7 158.081 48.6648 157.827 49.5V49.5ZM147.696 50.8495C146.804 50.8495 145.975 50.8495 145.147 50.6571C142.789 50.1429 141.451 47.1219 140.368 45.1923C141.579 44.8714 142.534 44.6143 142.534 43.0714C142.534 41.5286 141.132 41.0143 139.858 40.8857V46.1571C139.858 48.6648 139.349 49.8209 142.215 50.0791V50.7857H135.781V50.0791C138.138 49.7571 137.819 48.8571 137.819 46.6714V45.2571C137.819 44.4857 137.756 43.7781 137.756 43.0077C137.756 41.2077 137.374 41.0781 135.717 40.8209V40.1791C137.246 40.1791 138.775 40.1143 140.304 40.1143C142.153 40.1143 144.956 40.5 144.956 42.9429C144.956 44.2934 144 45 142.917 45.4505C143.809 47.3143 145.721 49.8219 147.823 50.2066V50.8495H147.696V50.8495ZM129.409 46.6066V45.9C131.002 45.6429 131.83 45.4505 131.83 43.5219C131.83 41.6571 130.046 41.0143 128.453 40.9505V45.6429C128.453 46.3505 128.517 47.0571 128.517 47.7638C128.581 49.7571 128.835 49.9505 130.874 50.0781V50.7857H124.311V50.0791C124.757 50.0143 125.777 49.8857 126.096 49.5C126.478 48.9857 126.415 46.6066 126.415 45.9C126.415 44.8714 126.605 41.9143 125.904 41.3352C125.523 41.0781 124.821 40.9505 124.311 40.8857V40.2429C125.841 40.1791 127.37 40.1143 128.835 40.1143C130.747 40.1143 134.187 40.6934 134.187 43.2C134.187 46.0286 131.639 46.4791 129.409 46.6066V46.6066ZM176.177 23.3362C173.31 26.2934 169.104 28.0286 164.963 28.0286L150.562 28.0923H150.244C149.926 28.1571 149.416 28.0923 149.098 28.0923C145.656 28.0286 144.319 27.8352 141.325 25.9704C136.227 22.7571 133.932 19.1571 130.301 14.3362C133.232 14.3362 137.438 11.5714 137.438 8.35714C137.438 3.98571 133.104 2.37806 129.473 2.37806H129.409C129.345 9.06377 129.218 15.6857 129.218 22.3714C129.218 26.4857 130.556 26.3571 134.443 26.8714V28.0923H124.503C124.566 21.0857 124.757 14.1429 124.757 7.2C124.757 6.17143 124.757 3.53623 123.865 2.76377C123.292 2.24949 122.017 2.31429 121.253 2.31429V1.15714C124.694 1.09234 128.072 0.963771 131.448 0.963771C135.717 0.963771 142.534 1.7352 142.534 7.45714C142.534 11.2505 139.349 13.7571 135.972 14.7209C138.393 17.6143 146.039 26.8714 150.117 26.8714C154.004 26.8714 155.087 25.2 155.087 21.4066V7.77806C155.087 3.66377 154.385 2.76377 150.244 2.12091V1.09234C153.94 1.02857 157.635 0.963771 161.33 0.963771C170.57 0.963771 180 3.47143 180 14.5286C180 17.8714 178.535 20.9571 176.177 23.3362V23.3362ZM115.264 41.3362C114.562 41.8505 112.142 45.9 112.142 46.6066C112.142 48.9857 111.823 49.8209 114.436 50.0791V50.7857H107.809V50.0791C110.357 49.8219 110.039 49.0505 110.039 46.7362C109.529 45.7714 107.3 41.7857 106.343 41.2714C105.961 41.0143 105.387 40.8857 105.006 40.8857V40.1791H110.549V40.8209C110.166 40.9505 109.338 41.0143 109.338 41.5286C109.338 42.1066 111.123 44.6143 111.568 45.3209C111.887 44.6781 113.161 42.3 113.161 41.5286C113.161 41.0143 112.524 40.8857 112.142 40.8209V40.1791H116.666V40.8209C116.156 40.9505 115.646 41.0143 115.264 41.3352V41.3362ZM103.604 43.7781H103.476C102.966 41.2066 102.456 41.4 100.036 41.3352V46.6066C100.036 49.0505 99.7169 49.7571 102.266 50.0791V50.7857H95.7662V50.0791C97.487 49.8219 97.8696 49.7571 97.9334 47.9571C97.9961 47.1219 97.9961 46.3495 97.9961 45.5143C97.9961 44.1 97.9961 42.7505 97.9334 41.3352C95.4483 41.3352 95.0019 41.1429 94.5555 43.8429L93.8551 43.7781C93.9826 42.5571 94.0454 41.3352 94.1102 40.1781C95.1922 40.2429 96.2764 40.3714 97.4222 40.3714C98.5063 40.3714 99.5256 40.3077 100.609 40.3077C101.757 40.3077 102.902 40.3077 103.987 40.1791C103.987 40.3714 103.923 40.5638 103.923 40.7571C103.923 41.7857 104.049 42.8143 104.113 43.7791H103.604V43.7781ZM111.123 6.2352C109.274 3.34286 106.598 1.41429 103.094 1.41429C95.9575 1.41429 93.6638 7.97143 93.6638 14.0781C93.6638 17.0352 94.1729 20.3791 95.7662 22.8857C97.6145 25.7143 100.417 27.6429 103.858 27.6429C111.185 27.6429 113.161 21.0857 113.161 14.8495C113.161 11.9571 112.651 8.67806 111.123 6.2352V6.2352ZM103.349 29.0571C94.7469 29.0571 88.3111 23.3362 88.3111 14.4638C88.3111 5.59337 94.8734 0 103.413 0C112.206 0 118.513 5.65714 118.513 14.7209C118.513 23.4638 111.759 29.0571 103.349 29.0571V29.0571ZM86.0174 50.7857V50.0791C87.7382 49.8219 88.057 49.7571 88.1208 47.9571V45.5791C88.1208 44.6781 88.3111 41.8495 87.6744 41.3352C87.3555 41.0781 86.4638 40.8857 86.0184 40.8209V40.1791H92.3256V40.8209C89.9681 41.2077 90.1594 41.9791 90.1594 44.2286V46.3505C90.1594 46.8 90.2232 47.2495 90.2232 47.7638C90.287 49.6286 90.4783 49.8857 92.3256 50.0781V50.7857H86.0174V50.7857ZM80.1555 51.0429C79.2638 51.0429 77.7981 50.5286 76.9701 50.1429V46.5429H77.6078C77.8618 48.0857 78.4995 50.1429 80.3469 50.1429C81.3034 50.1429 82.0029 49.4362 82.0029 48.4714C82.0029 45.9648 77.0338 46.5429 77.0338 43.1352C77.0338 41.0143 79.0087 39.9209 80.856 39.9209C81.8126 39.9209 82.7043 40.2429 83.5334 40.6923L83.4058 43.6495H82.7681C82.4493 42.4286 82.0677 40.8209 80.5382 40.8209C79.7102 40.8209 79.0725 41.5286 79.0725 42.3638C79.0725 44.8714 84.1701 44.3571 84.1701 47.8286C84.1701 50.0791 82.1304 51.0429 80.1555 51.0429V51.0429ZM75.5043 50.8495C74.6763 50.8495 73.8483 50.8495 73.0193 50.6571C70.6618 50.1429 69.2599 47.1219 68.1768 45.1923C69.3874 44.8714 70.4067 44.6143 70.4067 43.0714C70.4067 41.5286 68.9421 41.0143 67.6677 40.8857V46.1571C67.6677 48.6648 67.1575 49.8209 70.0251 50.0791V50.7857H63.5894V50.0791C66.0106 49.7571 65.628 48.8571 65.628 46.6714V43.0077C65.5642 41.2077 65.2464 41.0781 63.5256 40.8209V40.1791C65.0551 40.1791 66.5846 40.1143 68.113 40.1143C69.9614 40.1143 72.7642 40.5 72.7642 42.9429C72.7642 44.2934 71.8725 45 70.7256 45.4505C71.6822 47.3143 73.5933 49.8219 75.6957 50.2066V50.8495H75.5043V50.8495ZM60.8493 50.7857H51.9933V50.0791C53.7768 49.8219 54.0319 49.7571 54.0957 47.9571V42.9429C54.0319 41.2714 53.6493 41.0143 51.9933 40.8857V40.1791H61.0406L60.913 43.3286H60.2753C60.1488 42.7505 60.1488 42.0429 59.6386 41.6571C59.0019 41.0781 57.3449 41.0781 56.4531 41.0781H56.1991L56.1343 44.6781C56.5807 44.6781 58.3642 44.7429 58.7469 44.4857C58.9382 44.3571 59.1295 43.4571 59.1933 43.2648H59.831V43.4571C59.831 44.8077 59.7662 46.2209 59.7662 47.6352H59.1285C59.0019 46.3495 58.9382 45.9648 57.6 45.9648H56.1343L56.1991 47.8286C56.1991 49.3077 56.1991 49.8857 57.9189 49.8857C59.8299 49.8857 60.659 48.3429 61.1691 46.6714L61.8058 46.8C61.6145 48.2143 61.2957 49.4362 60.8493 50.7857V50.7857ZM49.7633 41.4C48.8715 42.2362 45.6213 49.9505 44.9835 51.4286H44.6647L40.7787 42.4923C40.2696 41.3352 39.887 41.0143 38.6126 40.8219V40.1791H44.5371V40.8209C44.1545 40.8857 42.9439 41.0781 42.9439 41.6571C42.9439 42.4934 45.0473 47.0571 45.4927 47.8923C45.8115 47.0571 47.8502 42.6209 47.8502 41.7209C47.8502 41.1429 46.513 40.9495 46.0666 40.8219V40.1791H51.0994V40.8209C50.6541 40.9505 50.0811 41.0781 49.7623 41.4H49.7633ZM31.6677 50.7857V50.0791C33.3874 49.8219 33.6425 49.7571 33.7063 47.9571C33.7701 47.1857 33.7701 46.3495 33.7701 45.5791C33.7701 44.6781 33.8976 41.8495 33.2609 41.3352C32.9421 41.0781 32.0493 40.8857 31.6666 40.8209V40.1791H37.9749V40.8209C35.5536 41.2077 35.8087 41.9791 35.8087 44.2286V46.3505C35.8087 46.8 35.8087 47.2495 35.8725 47.7638C35.9362 49.6286 36.1275 49.8857 37.9749 50.0781V50.7857H31.6677V50.7857ZM84.8705 7.00663C84.2976 2.31429 80.028 2.50766 76.3961 2.50766H73.9749V12.9209H76.7788C78.4348 12.9209 80.0918 12.9209 81.685 12.6638V19.3495H80.7285C80.4744 14.2714 78.2445 15.1066 73.9749 15.1066V21.7286C73.9749 26.4857 74.5488 26.2286 79.0725 27.0648V28.0934H52.5662L45.3662 16.7143C44.2193 18.1286 40.4599 23.2714 40.4599 24.8791C40.4599 26.2934 42.4347 26.7429 43.4551 27.1286L43.3913 28.0923H31.5401V26.8714C36.3826 26.6143 37.7835 24.6857 40.3323 20.8923L44.2831 15.2352L40.0145 8.1C38.1024 4.94949 35.6811 2.25051 31.7952 2.18571V0.963771H40.7787L47.4058 11.3143C48.3614 9.8352 51.4193 5.4 51.4193 3.79337C51.4193 2.37806 49.572 2.31429 48.5527 2.12194V0.963771H59.9575V2.12194C55.3701 2.44286 53.6493 4.43623 51.229 8.1C50.2725 9.64286 49.3169 11.1209 48.2976 12.6638L53.9033 21.4714C55.6241 24.1714 57.7275 26.8714 61.2319 26.8714C65.2464 26.8714 69.4512 26.6143 69.4512 21.6V6.94286C69.4512 3.02091 68.6232 2.50766 64.7362 1.92857V0.9H85.572L86.0174 7.00663H84.8705ZM28.5459 41.4C27.9082 42.0429 28.0995 49.9505 28.0995 50.7857H27.3981C25.1681 48.2143 22.6831 45.9 20.3894 43.3923V47.6362C20.4531 49.8209 21.0909 49.9505 23.0657 50.0791V50.7857H17.1401V50.0791C18.7323 49.8857 19.115 49.5 19.1787 47.9571C19.2425 46.7352 19.3063 45.5143 19.3063 44.2934V42.8143C19.3063 42.6209 19.2425 42.3638 19.2425 42.1714C18.4783 41.2714 18.0319 41.0781 16.885 40.8209V40.1791H20.5807C21.4087 41.7219 25.5507 45.7066 27.0165 47.3143C27.0165 46.6066 27.0802 45.9648 27.0802 45.2571C27.0802 44.5505 27.0165 43.8429 26.9517 43.1352C26.8889 41.1429 26.1874 40.9505 24.3391 40.8857V40.1791C26.2291 40.2429 28.1207 40.2429 30.0106 40.1791V40.8209C29.5653 40.8857 28.9275 41.0143 28.5449 41.4H28.5459ZM22.8096 6.2352C20.9623 3.34286 18.2859 1.41429 14.8454 1.41429C7.64537 1.41429 5.35166 7.90663 5.35166 14.0781C5.35166 17.0352 5.8608 20.3791 7.51783 22.8857C9.36514 25.6495 12.169 27.5791 15.5458 27.5791C22.9371 27.5791 24.8482 21.0219 24.8482 14.8505C24.8482 11.9571 24.3391 8.67909 22.8096 6.2352V6.2352ZM9.11314 51.1077C6.37303 51.1077 4.52571 50.5934 4.14309 47.6352C4.01554 46.2857 3.95177 44.8714 3.76046 43.5209C3.63291 42.5571 3.4416 41.1429 2.23097 41.0143H1.46674V40.1791C2.93246 40.1791 4.46091 40.1791 5.92663 40.1143C5.9904 42.6209 6.11794 45.1923 6.4368 47.7C6.56434 49.2429 7.77394 49.9505 9.17691 49.9505C10.3875 49.9505 11.5334 49.5 11.8522 48.2143C12.2349 46.6066 12.4899 44.5505 12.4899 42.9429C12.4899 41.5934 11.7247 40.8857 10.4503 40.8857V40.1791H16.1218V40.8857C10.9605 40.8857 16.1856 51.1077 9.11314 51.1077V51.1077ZM15.0994 29.0571C6.4368 29.0571 0 23.3362 0 14.4C0 5.52857 6.56229 0 15.1005 0C23.8947 0 30.2019 5.59234 30.2019 14.6571C30.2019 23.4638 23.5111 29.0571 15.1015 29.0571H15.0994Z" fill="white"/>
</g>
<defs>
<clipPath id="clip0">
<rect width="180" height="51.4286" fill="white"/>
</clipPath>
</defs>
</svg>

<svg width="180" height="52" fill="none" xmlns="http://www.w3.org/2000/svg"><g clip-path="url(#clip0)"><path fill-rule="evenodd" clip-rule="evenodd" d="M173.373 51.043c-.956 0-2.357-.514-3.186-.9v-3.6h.638c.255 1.543.828 3.6 2.675 3.6 1.021 0 1.721-.707 1.721-1.672 0-2.506-5.034-1.928-5.034-5.336 0-2.12 1.976-3.214 3.824-3.214 1.019 0 1.847.322 2.739.771l-.191 2.958h-.637c-.254-1.221-.637-2.83-2.166-2.83-.828 0-1.53.709-1.53 1.544 0 2.507 5.098 1.993 5.098 5.465 0 2.25-1.975 3.214-3.951 3.214zm-9.558 0c-.891 0-2.357-.514-3.185-.9v-3.6h.638c.254 1.543.891 3.6 2.739 3.6.956 0 1.657-.707 1.657-1.672 0-2.506-4.97-1.928-4.97-5.336 0-2.12 1.976-3.214 3.823-3.214.955 0 1.847.322 2.676.771l-.127 2.958h-.638c-.318-1.221-.7-2.83-2.23-2.83-.828 0-1.466.709-1.466 1.544 0 2.507 5.098 1.993 5.098 5.465 0 2.25-2.039 3.214-4.015 3.214zm-2.547-48.665c-.574 0-1.275.065-1.912.257V22.5c0 3.408 1.338 4.243 4.715 4.243 6.881 0 10.577-5.207 10.577-11.764 0-8.1-5.735-12.6-13.38-12.6zM157.827 49.5c-.064.45-.255.835-.383 1.286h-8.857v-.707c1.721-.257 1.975-.322 2.039-2.122.065-.643.065-1.286.065-1.865v-1.414c0-.578 0-1.156-.065-1.735-.064-1.672-.382-1.929-2.039-2.057v-.707h8.985l-.065 3.15h-.7c-.063-.578-.128-1.286-.573-1.672-.638-.579-2.358-.579-3.186-.579h-.255l-.064 3.6c.446 0 2.23.065 2.549-.192.191-.129.382-1.029.446-1.221h.637v4.37h-.701c-.128-1.285-.128-1.67-1.465-1.67h-1.466v1.864c.064 1.479 0 2.057 1.72 2.057 1.976 0 2.804-1.543 3.314-3.215l.637.129c-.191.9-.319 1.865-.573 2.7zm-10.131 1.35c-.892 0-1.721 0-2.549-.193-2.358-.514-3.696-3.535-4.779-5.465 1.211-.32 2.166-.578 2.166-2.12 0-1.543-1.402-2.058-2.676-2.186v5.271c0 2.508-.509 3.664 2.357 3.922v.707h-6.434v-.707c2.357-.322 2.038-1.222 2.038-3.408v-1.414c0-.771-.063-1.479-.063-2.25 0-1.8-.382-1.929-2.039-2.186v-.642c1.529 0 3.058-.065 4.587-.065 1.849 0 4.652.386 4.652 2.829 0 1.35-.956 2.057-2.039 2.508.892 1.863 2.804 4.37 4.906 4.756v.642h-.127zm-18.287-4.243V45.9c1.593-.257 2.421-.45 2.421-2.378 0-1.865-1.784-2.508-3.377-2.572v4.693c0 .707.064 1.414.064 2.12.064 1.994.318 2.188 2.357 2.315v.708h-6.563v-.707c.446-.065 1.466-.193 1.785-.579.382-.514.319-2.893.319-3.6 0-1.029.19-3.986-.511-4.565-.381-.257-1.083-.385-1.593-.45v-.642c1.53-.064 3.059-.129 4.524-.129 1.912 0 5.352.58 5.352 3.086 0 2.829-2.548 3.28-4.778 3.407zm46.768-23.27c-2.867 2.956-7.073 4.692-11.214 4.692l-14.401.063h-.318c-.318.065-.828 0-1.146 0-3.442-.063-4.779-.257-7.773-2.122-5.098-3.213-7.393-6.813-11.024-11.634 2.931 0 7.137-2.765 7.137-5.979 0-4.371-4.334-5.979-7.965-5.979h-.064c-.064 6.686-.191 13.308-.191 19.993 0 4.115 1.338 3.986 5.225 4.5v1.221h-9.94c.063-7.006.254-13.95.254-20.892 0-1.029 0-3.664-.892-4.436-.573-.515-1.848-.45-2.612-.45V1.157c3.441-.065 6.819-.193 10.195-.193 4.269 0 11.086.771 11.086 6.493 0 3.794-3.185 6.3-6.562 7.264 2.421 2.893 10.067 12.15 14.145 12.15 3.887 0 4.97-1.671 4.97-5.464V7.778c0-4.114-.702-5.014-4.843-5.657V1.092c3.696-.063 7.391-.128 11.086-.128C170.57.964 180 3.47 180 14.529c0 3.342-1.465 6.428-3.823 8.807zm-60.913 18c-.702.513-3.122 4.563-3.122 5.27 0 2.379-.319 3.214 2.294 3.472v.707h-6.627v-.707c2.548-.257 2.23-1.029 2.23-3.343-.51-.965-2.739-4.95-3.696-5.465-.382-.257-.956-.385-1.337-.385v-.707h5.543v.642c-.383.13-1.211.193-1.211.708 0 .578 1.785 3.085 2.23 3.792.319-.643 1.593-3.021 1.593-3.792 0-.515-.637-.643-1.019-.708v-.642h4.524v.642c-.51.13-1.02.193-1.402.514v.001zm-11.66 2.441h-.128c-.51-2.571-1.02-2.378-3.44-2.443v5.272c0 2.444-.32 3.15 2.23 3.472v.707h-6.5v-.707c1.721-.257 2.104-.322 2.167-2.122.063-.835.063-1.608.063-2.443 0-1.414 0-2.764-.063-4.179-2.485 0-2.931-.192-3.378 2.508l-.7-.065c.128-1.22.19-2.443.255-3.6 1.082.065 2.166.193 3.312.193 1.084 0 2.104-.063 3.187-.063 1.148 0 2.293 0 3.378-.129 0 .192-.064.385-.064.578 0 1.029.126 2.057.19 3.022h-.509zm7.519-37.543c-1.849-2.892-4.525-4.82-8.029-4.82-7.136 0-9.43 6.556-9.43 12.663 0 2.957.509 6.301 2.102 8.808 1.849 2.828 4.651 4.757 8.092 4.757 7.327 0 9.303-6.557 9.303-12.793 0-2.893-.51-6.172-2.038-8.615zm-7.774 22.822c-8.602 0-15.038-5.72-15.038-14.593C88.311 5.594 94.873 0 103.413 0c8.793 0 15.1 5.657 15.1 14.72 0 8.744-6.754 14.337-15.164 14.337zM86.017 50.786v-.707c1.721-.257 2.04-.322 2.104-2.122V45.58c0-.9.19-3.73-.447-4.244-.319-.257-1.21-.45-1.656-.514v-.642h6.308v.642c-2.358.387-2.167 1.158-2.167 3.408v2.121c0 .45.064.9.064 1.414.064 1.865.255 2.122 2.103 2.314v.708h-6.309zm-5.861.257c-.892 0-2.358-.514-3.186-.9v-3.6h.638c.254 1.543.891 3.6 2.739 3.6.956 0 1.656-.707 1.656-1.672 0-2.506-4.97-1.928-4.97-5.336 0-2.12 1.976-3.214 3.823-3.214.957 0 1.848.322 2.677.771l-.127 2.958h-.638c-.319-1.221-.7-2.83-2.23-2.83-.828 0-1.465.709-1.465 1.544 0 2.507 5.097 1.993 5.097 5.465 0 2.25-2.04 3.214-4.014 3.214zm-4.652-.194c-.828 0-1.656 0-2.485-.192-2.357-.514-3.76-3.535-4.842-5.465 1.21-.32 2.23-.578 2.23-2.12 0-1.543-1.465-2.058-2.74-2.186v5.271c0 2.508-.51 3.664 2.358 3.922v.707H63.59v-.707c2.422-.322 2.039-1.222 2.039-3.408v-3.663c-.064-1.8-.382-1.93-2.102-2.187v-.642c1.53 0 3.059-.065 4.587-.065 1.848 0 4.651.386 4.651 2.829 0 1.35-.891 2.057-2.038 2.508.956 1.863 2.867 4.37 4.97 4.756v.642h-.192zm-14.655-.063h-8.856v-.707c1.784-.257 2.039-.322 2.103-2.122v-5.014c-.064-1.672-.447-1.929-2.103-2.057v-.707h9.048l-.128 3.15h-.638c-.126-.578-.126-1.286-.636-1.672-.637-.579-2.294-.579-3.186-.579H56.2l-.065 3.6c.447 0 2.23.065 2.613-.192.191-.129.383-1.029.446-1.221h.638v.192c0 1.35-.065 2.764-.065 4.178h-.637c-.127-1.285-.19-1.67-1.529-1.67h-1.466l.065 1.864c0 1.479 0 2.057 1.72 2.057 1.91 0 2.74-1.543 3.25-3.215l.637.129c-.191 1.414-.51 2.636-.957 3.986zM49.763 41.4c-.892.836-4.142 8.55-4.78 10.029h-.318l-3.886-8.937c-.51-1.157-.892-1.478-2.166-1.67v-.643h5.924v.642c-.383.065-1.593.257-1.593.836 0 .836 2.103 5.4 2.549 6.235.319-.835 2.357-5.271 2.357-6.171 0-.578-1.337-.771-1.783-.9v-.642h5.032v.642c-.445.13-1.018.257-1.337.579h.001zm-18.095 9.386v-.707c1.72-.257 1.974-.322 2.038-2.122.064-.771.064-1.608.064-2.378 0-.9.128-3.73-.51-4.244-.318-.257-1.21-.45-1.593-.514v-.642h6.308v.642c-2.421.387-2.166 1.158-2.166 3.408v2.121c0 .45 0 .9.064 1.414.063 1.865.255 2.122 2.102 2.314v.708h-6.307zM84.87 7.006c-.573-4.692-4.843-4.498-8.475-4.498h-2.421V12.92h2.804c1.656 0 3.313 0 4.906-.257v6.685h-.957c-.254-5.078-2.483-4.242-6.753-4.242v6.622c0 4.757.574 4.5 5.098 5.336v1.028H52.566l-7.2-11.379c-1.147 1.415-4.906 6.557-4.906 8.165 0 1.414 1.975 1.864 2.995 2.25l-.064.963h-11.85v-1.22c4.842-.258 6.242-2.186 8.791-5.98l3.951-5.657L40.014 8.1c-1.912-3.15-4.333-5.85-8.219-5.914V.964h8.984l6.627 10.35c.955-1.479 4.013-5.914 4.013-7.52 0-1.416-1.847-1.48-2.866-1.672V.964h11.405v1.158c-4.588.32-6.309 2.314-8.729 5.978a185.686 185.686 0 01-2.931 4.564l5.605 8.807c1.721 2.7 3.825 5.4 7.329 5.4 4.014 0 8.22-.257 8.22-5.271V6.943c0-3.922-.829-4.435-4.716-5.014V.9h20.836l.445 6.107h-1.146zM28.546 41.4c-.638.643-.447 8.55-.447 9.386h-.7c-2.23-2.572-4.716-4.886-7.01-7.394v4.244c.064 2.185.702 2.314 2.677 2.443v.707H17.14v-.707c1.592-.193 1.975-.579 2.039-2.122.064-1.222.127-2.443.127-3.664v-1.479c0-.193-.064-.45-.064-.643-.764-.9-1.21-1.093-2.357-1.35v-.642h3.696c.828 1.543 4.97 5.528 6.436 7.135 0-.707.063-1.35.063-2.057 0-.706-.063-1.414-.128-2.122-.063-1.992-.765-2.184-2.613-2.25v-.706c1.89.064 3.782.064 5.672 0v.642c-.446.065-1.084.193-1.466.579zM22.81 6.235c-1.848-2.892-4.524-4.82-7.965-4.82-7.2 0-9.493 6.492-9.493 12.663 0 2.957.509 6.301 2.166 8.808 1.847 2.764 4.651 4.693 8.028 4.693 7.391 0 9.302-6.557 9.302-12.729 0-2.893-.509-6.17-2.038-8.615zM9.113 51.108c-2.74 0-4.587-.515-4.97-3.473-.127-1.35-.191-2.764-.383-4.114-.127-.964-.318-2.378-1.529-2.507h-.764v-.835c1.465 0 2.994 0 4.46-.065.063 2.507.19 5.078.51 7.586.127 1.543 1.337 2.25 2.74 2.25 1.21 0 2.356-.45 2.675-1.736.383-1.607.638-3.663.638-5.271 0-1.35-.765-2.057-2.04-2.057v-.707h5.672v.707c-5.162 0 .064 10.222-7.009 10.222zm5.986-22.05C6.437 29.057 0 23.335 0 14.4 0 5.529 6.562 0 15.1 0c8.795 0 15.102 5.592 15.102 14.657 0 8.807-6.69 14.4-15.1 14.4h-.003z" fill="#fff"/></g><defs><clipPath id="clip0"><path fill="#fff" d="M0 0h180v51.429H0z"/></clipPath></defs></svg>
